X:43
T:Bill Cheatham
C:Traditional
N:Transcribed by Simon Shartel
R:bluegrass
L:1/8
Q:1/4=220
M:4/4
K:A
z8 |: "A"E2 [e2c2] [e2c2] AB | cB Ac BA FE | "D"D2 d2 d2 de | fg af ed cB | "A"A2 [e2c2] [e2c2] AB | 
cB Ac BA Bc | "D"dc de fg af |1 "E"ed cB "A"A2 F2 :|2 "E"ed cB "A"A2 af |: "A"ec ea "D"fd fa | 
"E"ge fg "A"a2 af | "A"ec ea "D"fd fa | "A"ef ec "E"B2 af | "A"ec ea "D"fd fa | 
"E"ge fg "A"a2 eg | "A"ag ae fg af |1 "E"ed cB "A"A2 af :|2 "E"ed cB "A"A4 | 

